X:1
T:James Gibb editions
T:Der Herr ist gross und sehr löblich - Schütz
T:#
%%score [ 1 2 ] 3
L:1/8
Q:1/4=100
M:2/2
K:C
V:1 treble nm="Soprano I"
V:2 treble nm="Soprano II"
V:3 bass nm="Continuo"
V:1
"^Der Herr ist gross und sehr löblich, SWV 286""^Heinrich Schütz\n(1585-1672)""^Psalm 145: 3-4" d8 | %1
w: Der|
 B4 c4 | d2 d4 B2 | (cdcB AB/c/ BA | BcBA GA/B/ AG | ^FG/A/ G4 F2) | G8 | z8 |[M:2/2] G8 | E4 ^F4 | %10
w: Herr ist|gross und sehr|löb\- * * * * * * * *|||lich,||der|Herr ist|
 G8 | z4 d4 | B8 | ^c4 d4 | z4 e4 | c4 d4 | e2 e4 c2 | (dedc Bc/d/ cB | cdcB AB/c/ BA | B2) G2 z4 | %20
w: gross,|der|Herr|ist gross,|der|Herr ist|gross un sehr|löb\- * * * * * * * *||* lich,|
 z8 | z2 d4 B2 | c(dcB AB/c/ BA | BcBA GA/B/ AG | ABAG FG/A/ GF | GAGF E^F/G/ FE | ^FG/A/ G4 F2) | %27
w: |und sehr|löb\- * * * * * * * *|||||
 G8 | z4 A4 | A4 A4 | B8 | A8 | z2 e2 c2 A2 | (edcB AB c2- | c2 BA B4) | c8 | z8 | z8 | d8 x4 | %39
w: lich,|und|sei- ne|Grö-|sse|ist un- aus-|sprech\- * * * * * *||lich,|||und|
 d4 d4 x4 | e8 | d4 z2 A2 | F2 D2 (AGFE | DEFG A4) | E2 e2 c2 A2 | (edcB ABcA | d8) | c8 | z8 | %49
w: sei- ne|Grö-|sse ist|un- aus- sprech\- * * *||lich, ist un- aus-|sprech\- * * * * * * *||lich.||
 z4 z2 GF | E2 CD EFGB | A2 G2 z4 | z4 z2 AG | F2 DE FGAc | B2 A2 z2 ed | c2 cB A2 FG | %56
w: Kin- des-|kind wer- den dei- ne Wer- ke|prei- sen,|Kin- des-|kind wer- den dei- ne Wer- ke|prei- sen, Kin- des-|kind, Kin- des- kind wer- den|
 ABce d2 c2 | z8 | z2 dA A2 AB | (c>d c>d e4) | B8 | A8 | z2 GG ^F2 G2 | z2 AA ^G2 A2 | %64
w: dei- ne Wer- ke prei- sen,||und von dei- ner Ge-|walt * * * *|sa-|gen,|Al- le- lu- ja,|Al- le- lu- ja,|
 z2 AA ^GGAA | ^G2 A2 z2 A2 | (E2 G4) ^F2 | G2 cc B2 c2 | z2 dd ^c2 d2 | z2 =cc B2 A2 | %70
w: Al- le- lu- ja, Al- le-|lu- ja, Al-|le\- * lu-|ja, Al- le- lu- ja,|Al- le- lu- ja,|Al- le- lu- ja,|
 z2 cc B2 A2 |[Q:1/4=99] z2[Q:1/4=97] c4[Q:1/4=96] B2 |[Q:1/4=94] A8 x8 |[Q:1/4=88] G16 |] %74
w: Al- le- lu- ja,|Al- le-|lu-|ja.|
V:2
 z8 | z8 | z8 | z8 | z8 | z8 | d8 | B4 c4 |[M:2/2] d2 d4 B2 | (cdcB AB/c/ BA | BcBA GA/B/ AG | %11
w: ||||||Der|Herr ist|gross und sehr|löb\- * * * * * * * *||
 ^FG/A/ G4 F2) | G4 G4 | E4 ^F4 | G4 z2 c2 | A4 B4 | c8 | z8 | z2 e4 c2 | (dedc Bc/d/ cB | %20
w: |lich, der|Herr ist|gross, der|Herr ist|gross||und sehr|löb\- * * * * * * * *|
 cdcB AB/c/ BA | B2 G2 z2 G2 | E4 ^F4 | G2 d4 B2 | (cdcB AB/c/ BA | BcBA GA/B/ AG | %26
w: |* lich, der|Herr ist|gross und sehr|löb\- * * * * * * * *||
 Ad/c/ Bc/B/ A4) | G8 | z8 | z8 | z8 | z8 | c8 | c4 c4 | d8 | c2 G2 E2 C2 | GFED CDEF | G4) D2 d2 | %38
w: |lich,|||||und|sei- ne|Grö-|sse ist un- aus-|sprech\- * * * * * * *|* lich, ist|
 B2 G2 (dcBA x4 | GABc Bc d2- x4 | d2 ^cB c4) | d8 | z8 | z4 z2 e2 | c2 A2 (edcB | ABAB c4- | %46
w: un- aus sprech\- * * *|||lich,||ist|un- aus- sprech\- * * *||
 c2 BA B4) | c8 | z2 GF E2 CD | EGFE D2 C2 | z8 | z2 dc B2 GA | Bcdf e2 d2 | z2 AG F2 DE | %54
w: |lich.|Kin- des- kind wer- den|dei- ne Wer- ke prei- sen,||Kin- des- kind wer- den|dei- ne Wer- ke prei- sen,|Kin- des- kind wer- den|
 FGAc B2 A2 | z2 ed c2 AB | cdec B2 c2 | z2 cG G2 GA | (B>c B>c d4) | (^G3 A/B/ A4- | A4 ^G4) | %61
w: dei- ne Wer- ke prei- sen,|Kin- des- kind wer- den|dei- ne Wer- ke prei- sen,|und von dei- ner Ge-|wait * * * *|sa\- * * *||
 A4 z2 cc | B2 c2 z2 dd | ^c2 d2 z2 =cc | B2 A2 z2 cc | B2 A2 z2 c2- | c2 B2 A4 | G4 z2 GG | %68
w: gen, Al- le-|lu- ja, Al- le-|lu- ja, Al- le-|lu- j~a, Al- le-|lu- ja, Al\-|* le- lu-|ja, Al- le-|
 ^F2 G2 z2 AA | ^G2 A2 z2 AA | ^GGAA G2 A2 | z2 A2 E2 (=G2- | G2 ^FE F4) x8 | G16 |] %74
w: lu- ja, Al- le-|lu- ja, Al- le-|lu- ja, Al- le- lu- ja,|Al- le- lu\-||ja.|
V:3
 G,8 | G,4 C,4 | G,,8 | A,,8 | G,,8 | D,8 | G,,8 | G,4 C,4 |[M:2/2] G,8 | A,8 | G,8 | D,8 | G,,8 | %13
w: |||||~~~~~~~~~~~4||||5~~~~~~~~~~~6||~~~~~~~~~~~4||
w: |||||||||||||
 A,,4 D,4 | E,4 C,4 | F,2 A,2 G,4 | C,8 | G,8 | A,8 | G,8 | C,8 | G,8 | A,8 | G,8 | F,8 | E,8 | %26
w: |||||||5~~~~~~~~~~~6||5~~~~~~~~~~~~6||||
w: |||||||||||||
 D,8 | G,,8 | D,8 | D,4 ^C,4 | E,8 | A,,8 | A,8 | A,4 A,4 | G,8 | C,8- | C,4 A,,4 | G,,8- | %38
w: ~~~~~~~~~~~~~~~4|||* 6|||||4~~~~~~~~3||||
w: ||||||||||||
 G,,4 G,,8 | B,,4 A,,8 | D,8 | D,8- | D,4 A,,4- | A,,4 A,,4- | A,,4 A,4 | G,8 | C,8 | %47
w: |* 4||||||4~~~~~~~3||
w: |||||||||
 C,2 B,,2 C,2 A,,2 | E,,2 F,,2 G,,2 C,2- | C,2 A,,2 C,2 B,,2 | D,2 G,,2 G,2 ^F,2 | %51
w: * 6 * *||||
w: ||||
 G,2 D,2 A,2 D,2- | D,2 ^C,2 D,3 A,, | D,E,F,A, E,2 A,,2 | A,4 A,2 D,2 | A,2 E,2 G,2 C,2 | C,8 | %57
w: ||6 * * * * *||* 6 * *||
w: ||||||
 G,4 F,4 | E,4- E,4 | E,8 | A,,4 A,,2 F,,2 | G,,2 C,2 D,2 G,,2 | A,,2 D,2 E,2 A,,2 | %63
w: * 6|6 *|4||||
w: |* 4|||||
 E,2 A,,2 E,2 A,,2 | E,2 A,,2 z2 A,,2- | A,,2 G,,2 D,4 | G,,2 E,,2 G,,2 C,2 | D,2 G,,2 A,,2 D,2 | %68
w: ||* * 4|* 6 * *||
w: |||||
 E,2 A,,2 E,2 A,,2 | E,2 A,,2 E,2 A,,2 | z2 A,,4 G,,2 | D,8 | G,,16 | x16 |] %74
w: |||4|||
w: ||||||

